X:37
T: Der Maedchenmoerder (Halewijn - Ulinger)
N: Q0041S
O: Mitteleuropa, Schweiz, Kanton Bern
R: Ballade, Verfuehrung, Mord, Mordversuch bzw. Rache
M: 6/8
L: 1/16
K: G
GB | d4B2B3cd2 | c3AA2A4
d2 | B3GG2G3AB2 | A4A2A4
G2 | B3BB2A3GA2 | B4e2d4
B2 | d3ed2c3BA2 | c4d2B4

